!! 00000] TT[00
!! NN
!!!OTL: Taihang minbing
!!!ARE: Asia, China, Shanxi, Zuoquan
!! Ethnic Group: Han
!! I, 298, 1)
!!!SCT: C0077
!!!YEM: Copyright 1995, estate of Helmut Schaffrath.
**kern
*ICvox
*Ivox
*M2/4
*k[f#]
*G:
{8dd
8dd
8dd
8a
=1
4.dd
8ee
=2
8cc
8b
8dd
8a
=3
4g
8f#
8e}
=4
{8.a
16b
8dd
16b
16dd
=5
8a
8a
4dd
=6
8e
8f#
8a
8e
=7
2d}
==
!!!AGN: Xiaodiao, Datongfu. Geming lishi minge
!! neues Volkslied
!!!ONB: ESAC (Essen Associative Code) Database: CHINA
!!!AMT: simple duple
!!!AIN: vox
!!!EED: Helmut Schaffrath
!!!EEV: 1.0
*-
